X: 34861
T: Robbie Dagenais
R: reel
M: 4/4
K: Amajor
A2cA ecA2|dB^GB cAA=g|fded cdef|e(3c2d2c2B c2>A2|E^GFE DFED|
CA,CE AcBA|F2cB ABcB|^GEFD EdcA|EAcA ecAc|
dB^GB cAA=g|fded cdef|e(3c2d2c2B c2>e2|fae^g dfce|
dBcA BF^GF|FBAF dcBA|^GEcB A2AB|dfaf gfeg|
fdcd BdAF|(3G2g2a2gfg fed2|c[eA][Be][ce] [e2A2]>c2|dBGE BEGB|
cAEC A,2CB,|G,B,EG FCA,^G,|G,B,EG ^EABc|dfaf gfeg|
fdcd BdAF|(3G2g2a2gfg fed2|c[e2A2][Ae] [Ae]cAc|ecAc e2>c2|
dBGA BGBG|cBA^G =GECE|DFEC D2EF|

